packages/ffe-icons/icons/filled/lg/pan_zoom.svg

<svg xmlns="http://www.w3.org/2000/svg" height="40" viewBox="0 -960 960 960" width="40"><path d="M226.05-190.256h103.951q10.679 0 17.903 7.263 7.224 7.263 7.224 17.999 0 10.737-7.224 17.865-7.224 7.128-17.903 7.128H171.283q-13.295 0-22.288-8.994-8.994-8.993-8.994-22.288v-158.718q0-10.679 7.263-17.903 7.263-7.224 18-7.224 10.736 0 17.864 7.224t7.128 17.903v103.951L318.206-354q7.231-7.231 17.833-7.423Q346.641-361.615 354-354q7.615 7.359 7.615 17.768 0 10.41-7.615 18.026l-127.95 127.95ZM769.744-733.95l-127.54 127.54q-7.231 7.23-17.5 7.218-10.269-.013-17.884-7.628t-7.615-17.897q0-10.282 7.615-17.897l127.13-127.13H629.999q-10.679 0-17.903-7.263-7.224-7.263-7.224-17.999 0-10.737 7.224-17.865 7.224-7.128 17.903-7.128h158.718q13.295 0 22.288 8.994 8.994 8.993 8.994 22.288v158.718q0 10.679-7.263 17.903-7.263 7.224-18 7.224-10.736 0-17.864-7.224t-7.128-17.903V-733.95Z"/></svg>

<svg xmlns="http://www.w3.org/2000/svg" viewBox="0 -960 960 960" width="32" height="32"><path d="M226.05-190.26H330q10.68 0 17.9 7.27 7.23 7.26 7.23 18 0 10.73-7.23 17.86Q340.68-140 330-140H171.28q-13.29 0-22.29-8.99-8.99-9-8.99-22.29V-330q0-10.68 7.26-17.9 7.27-7.23 18-7.23 10.74 0 17.87 7.23 7.13 7.22 7.13 17.9v103.95L318.21-354q7.23-7.23 17.83-7.42 10.6-.2 17.96 7.42 7.62 7.36 7.62 17.77T354-318.21L226.05-190.26Zm543.69-543.69L642.2-606.41q-7.23 7.23-17.5 7.22-10.26-.02-17.88-7.63-7.61-7.62-7.61-17.9 0-10.28 7.61-17.89l127.13-127.13H630q-10.68 0-17.9-7.27-7.23-7.26-7.23-18 0-10.73 7.23-17.86Q619.32-820 630-820h158.72q13.29 0 22.29 8.99 8.99 9 8.99 22.29V-630q0 10.68-7.26 17.9-7.27 7.23-18 7.23-10.74 0-17.87-7.23-7.13-7.22-7.13-17.9v-103.95Z"/></svg>
